TV/Source/Vremya - Dark.svg

<svg height="5.125pt" viewBox="0 0 30.919199 5.125" width="30.919199pt" xmlns="http://www.w3.org/2000/svg" xmlns:xlink="http://www.w3.org/1999/xlink"><clipPath id="a"><path d="m0 0h595.275v841.89h-595.275z"/></clipPath><g clip-path="url(#a)" transform="matrix(.99999999 0 0 -.99999999 -510.54719 222.7349)"><g transform="translate(511.6017 217.6099)"><path d="m0 0h2.067l1.252 4.469-2.307-.836z" fill="#0098da"/></g><g transform="translate(510.5472 217.6099)"><path d="m0 0h .867l1.001 3.561-.948-.338z" fill="#94d5f6"/></g><g transform="translate(514.9776 222.2834)"><path d="m0 0 .126.451h-3.12l-.477-1.701z" fill="#43c0f0"/></g><g transform="translate(518.5642 219.7939)"><path d="m0 0v-1.223h.402c.482 0 .856.086.856.597 0 .561-.389.626-.841.626zm0 1.999v-1.086h.381c.432 0 .754.108.754.554 0 .467-.294.532-.74.532zm-1.389-4.178v5.12h2.273c.95 0 1.646-.432 1.646-1.295 0-.639-.322-.999-.905-1.186v-.022c.69-.143 1.035-.539 1.035-1.15 0-1.172-1.006-1.467-1.956-1.467z" fill="#1d1d1b"/></g><g transform="translate(523.441 221.7569)"><path d="m0 0v-1.395h.302c.46 0 .835.173.835.705 0 .525-.382.69-.842.69zm.007-2.374v-1.768h-1.395v5.12h1.877c1.323 0 2.042-.525 2.042-1.683 0-1.042-.755-1.669-2.006-1.669z" fill="#1d1d1b"/></g><g transform="translate(526.6852 222.7349)"><path d="m0 0h3.488v-.985h-2.092v-1.036h1.89v-.985h-1.89v-1.13h2.171v-.984h-3.567z" fill="#1d1d1b"/></g><g transform="translate(535.1436 221.3824)"><path d="m0 0h-.021l-1.353-1.481-1.358 1.481h-.022v-3.767h-1.389v5.119h1.598l1.171-1.279 1.172 1.279h1.59v-5.119h-1.388z" fill="#1d1d1b"/></g><g transform="translate(539.5184 221.7714)"><path d="m0 0c-.411 0-.719-.31-.719-.676 0-.475.351-.684.719-.684h.56v1.36zm.552-2.315h-.394l-.942-1.841h-1.568l1.223 2.07c-.533.188-.978.683-.978 1.467 0 .871.726 1.582 1.646 1.582h2.409v-5.119h-1.396z" fill="#1d1d1b"/></g></g></svg>

<?xml version="1.0" encoding="UTF-8" standalone="no"?>
<svg
   xmlns:dc="http://purl.org/dc/elements/1.1/"
   xmlns:cc="http://creativecommons.org/ns#"
   xmlns:rdf="http://www.w3.org/1999/02/22-rdf-syntax-ns#"
   xmlns:svg="http://www.w3.org/2000/svg"
   xmlns="http://www.w3.org/2000/svg"
   xmlns:sodipodi="http://sodipodi.sourceforge.net/DTD/sodipodi-0.dtd"
   xmlns:inkscape="http://www.inkscape.org/namespaces/inkscape"
   width="30.919199pt"
   height="5.125pt"
   viewBox="0 0 30.919199 5.125"
   version="1.1"
   id="svg23"
   sodipodi:docname="Vremya - Dark.svg"
   inkscape:version="0.92.0 r15299">
  <metadata
     id="metadata29">
    <rdf:RDF>
      <cc:Work
         rdf:about="">
        <dc:format>image/svg+xml</dc:format>
        <dc:type
           rdf:resource="http://purl.org/dc/dcmitype/StillImage" />
        <dc:title></dc:title>
      </cc:Work>
    </rdf:RDF>
  </metadata>
  <defs
     id="defs27">
    <clipPath
       clipPathUnits="userSpaceOnUse"
       id="clipPath6726">
      <path
         d="M 0,0 H 595.275 V 841.89 H 0 Z"
         id="path6724"
         inkscape:connector-curvature="0" />
    </clipPath>
  </defs>
  <sodipodi:namedview
     pagecolor="#ffffff"
     bordercolor="#666666"
     borderopacity="1"
     objecttolerance="10"
     gridtolerance="10"
     guidetolerance="10"
     inkscape:pageopacity="0"
     inkscape:pageshadow="2"
     inkscape:window-width="1920"
     inkscape:window-height="1017"
     id="namedview25"
     showgrid="false"
     fit-margin-top="0"
     fit-margin-left="0"
     fit-margin-right="0"
     fit-margin-bottom="0"
     inkscape:zoom="20.988453"
     inkscape:cx="18.957143"
     inkscape:cy="4.9731425"
     inkscape:window-x="-8"
     inkscape:window-y="-8"
     inkscape:window-maximized="1"
     inkscape:current-layer="svg23" />
  <g
     id="#ffffffff"
     transform="translate(-2175.4594,-904.3284)" />
  <g
     transform="matrix(0.99999999,0,0,-0.99999999,-510.54719,222.7349)"
     id="g6720">
    <g
       id="g6722"
       clip-path="url(#clipPath6726)">
      <g
         id="g6728"
         transform="translate(511.6017,217.6099)">
        <path
           d="M 0,0 H 2.067 L 3.319,4.469 1.012,3.633 Z"
           style="fill:#0098da;fill-opacity:1;fill-rule:nonzero;stroke:none"
           id="path6730"
           inkscape:connector-curvature="0" />
      </g>
      <g
         id="g6732"
         transform="translate(510.5472,217.6099)">
        <path
           d="M 0,0 H 0.867 L 1.868,3.561 0.92,3.223 Z"
           style="fill:#94d5f6;fill-opacity:1;fill-rule:nonzero;stroke:none"
           id="path6734"
           inkscape:connector-curvature="0" />
      </g>
      <g
         id="g6736"
         transform="translate(514.9776,222.2834)">
        <path
           d="m 0,0 0.126,0.451 h -3.12 L -3.471,-1.25 Z"
           style="fill:#43c0f0;fill-opacity:1;fill-rule:nonzero;stroke:none"
           id="path6738"
           inkscape:connector-curvature="0" />
      </g>
      <g
         id="g6740"
         transform="translate(518.5642,219.7939)">
        <path
           d="m 0,0 v -1.223 h 0.402 c 0.482,0 0.856,0.086 0.856,0.597 C 1.258,-0.065 0.869,0 0.417,0 Z M 0,1.999 V 0.913 h 0.381 c 0.432,0 0.754,0.108 0.754,0.554 0,0.467 -0.294,0.532 -0.74,0.532 z m -1.389,-4.178 v 5.12 H 0.884 C 1.834,2.941 2.53,2.509 2.53,1.646 2.53,1.007 2.208,0.647 1.625,0.46 V 0.438 c 0.69,-0.143 1.035,-0.539 1.035,-1.15 0,-1.172 -1.006,-1.467 -1.956,-1.467 z"
           style="fill:#1d1d1b;fill-opacity:1;fill-rule:nonzero;stroke:none"
           id="path6742"
           inkscape:connector-curvature="0" />
      </g>
      <g
         id="g6744"
         transform="translate(523.441,221.7569)">
        <path
           d="m 0,0 v -1.395 h 0.302 c 0.46,0 0.835,0.173 0.835,0.705 C 1.137,-0.165 0.755,0 0.295,0 Z m 0.007,-2.374 v -1.768 h -1.395 v 5.12 h 1.877 c 1.323,0 2.042,-0.525 2.042,-1.683 0,-1.042 -0.755,-1.669 -2.006,-1.669 z"
           style="fill:#1d1d1b;fill-opacity:1;fill-rule:nonzero;stroke:none"
           id="path6746"
           inkscape:connector-curvature="0" />
      </g>
      <g
         id="g6748"
         transform="translate(526.6852,222.7349)">
        <path
           d="M 0,0 H 3.488 V -0.985 H 1.396 v -1.036 h 1.89 v -0.985 h -1.89 v -1.13 H 3.567 V -5.12 H 0 Z"
           style="fill:#1d1d1b;fill-opacity:1;fill-rule:nonzero;stroke:none"
           id="path6750"
           inkscape:connector-curvature="0" />
      </g>
      <g
         id="g6752"
         transform="translate(535.1436,221.3824)">
        <path
           d="M 0,0 H -0.021 L -1.374,-1.481 -2.732,0 h -0.022 v -3.767 h -1.389 v 5.119 h 1.598 l 1.171,-1.279 1.172,1.279 h 1.59 V -3.767 H 0 Z"
           style="fill:#1d1d1b;fill-opacity:1;fill-rule:nonzero;stroke:none"
           id="path6754"
           inkscape:connector-curvature="0" />
      </g>
      <g
         id="g6756"
         transform="translate(539.5184,221.7714)">
        <path
           d="M 0,0 C -0.411,0 -0.719,-0.31 -0.719,-0.676 -0.719,-1.151 -0.368,-1.36 0,-1.36 H 0.56 V 0 Z M 0.552,-2.315 H 0.158 l -0.942,-1.841 h -1.568 l 1.223,2.07 c -0.533,0.188 -0.978,0.683 -0.978,1.467 0,0.871 0.726,1.582 1.646,1.582 H 1.948 V -4.156 H 0.552 Z"
           style="fill:#1d1d1b;fill-opacity:1;fill-rule:nonzero;stroke:none"
           id="path6758"
           inkscape:connector-curvature="0" />
      </g>
    </g>
  </g>
</svg>
